X:1
T: The Gem of Ireland
C:
R:Reel
Q: 232
K:D
M:4/4
L:1/8
|:D2 DE FE DF|((3AAA) AF AB dA|BA Bc dB AF|GE FD ED B,A,|
D2 DE FE DF|((3AAA) AF AB dA|BA Bc dB AF|GB AF D2 D2|
fe fg af df|((3eee) ed ef ge|fe fg af df|ed ef d2 de|
fe fg af df|((3eee) ed ef ge|fd ec B2 dB|Bd AF D2 D2:|
